X:17
T:RVW2/2/17 The Farmer's Daughter
C:Mr. Pottipher (?) [Pottiphar], Ingrave (?) Essex, 24 March 1904
L:1/8
Q:1/4=90
M:6/8
I:linebreak $
K:G
"^(Editorial suggestion) " D | DGA BdG | F D2 z z B | cBA DGA | B3 z z D |$ GAB BdG | F D2- D2 B | 
cBA DG>A | G3 z2 |] 



